X:1
T:Title
%%score 1 2
L:1/8
Q:1/4=90
M:4/4
K:Db
V:1 treble nm="Strings 1, Soprano"
V:2 bass nm="Strings 1, Bass"
V:1
 z4 z2 D>[DE] | [DF]>[D_F] [D=F]>[DA] [Fd]2 [Ac]>[GB] | [FA]>[DF] D>[DE] [DF]2 [DF]>[EG] | %3
w: 1.~Lis ten,~|sin ner,~ to~ the~ voice~ Of~ thy~|rea son's~ no ble~ choice,~ For~ thy~|
 [FA][_F=G] [=FA]>[_GB] [FA]>[DF] D>[DF] | [CE]6 D>[DE] | [DF]>[D_F] [D=F]>[DA] [Fd]2 [Ad]>[Ad] | %6
w: bet ter~ judg ment~ calls~ thee~ to~ re|pent,~ Rea son~|tells~ thee~ there's~ a~ God,~ Bids~ thee~|
 [Be]>[Bd] [Ac]>[GB] [FA]2 [FA]>[EG] | [DF]>[EG] [FA]>[Fd] [FA]>[DF] [CE]>[CF] | %8
w: trem ble~ at~ His~ word,~ And~ in|vites~ thee~ to~ the~ Sav ior~ He~ has~|
 D6 (3[DF][DF][EG] | [FA]6 (3[DF][DF][FA] | [Fd]6 [FA]>[FA] | %11
w: sent.~ * * *|||
 [GB]>[GB] [GB]>[Ac] [Bd]>[Bd] [Ac]>[GB] | [FA]6 (3[DF][DF][EG] | [FA]6 (3[DF][DF][FA] | %14
w: |||
 [Fd]6 [FA]>[FA] | [GB]>[GB] [GB]>[Gd] [FA]>[DF] [CE]>[DF] | D6 z2 |] %17
w: |||
V:2
 z4 z2 [D,F,]>[D,G,] | [D,A,]>[D,=G,] [D,A,]>[D,F,] [D,A,]2 [D,D]>[D,D] | %2
 [D,D]>[D,A,] [D,F,]>[D,G,] [D,A,]2 [D,A,]>[D,A,] | %3
 [D,D]>[D,D] [D,D]>[D,D] [D,D]>[D,A,] [F,A,]>[D,A,] | [A,,A,]6 [D,F,]>[D,G,] | %5
 [D,A,]>[D,=G,] [D,A,]>[D,F,] [D,A,]2 [F,D]>[F,D] | [G,D]>[G,D] [G,D]>[G,D] [D,D]2 [D,A,]>[D,A,] | %7
 [D,A,]>[D,A,] [D,A,]>[F,A,] A,>A, [A,,G,]>[A,,A,] | [D,F,]6 z2 | z2 [D,D]>[D,D] [D,D]2 z2 | %10
 z2 [D,A,]>[D,A,] [D,A,]2 [D,D]>[D,D] | [G,D]>[G,D] [G,D]>[G,D] [G,D]>[G,D] [G,D]>[G,D] | %12
 [D,D]6 z2 | z2 [D,D]>[D,D] [D,D]2 z2 | z2 [D,D]>[D,A,] [D,A,]2 [D,D]>[D,D] | %15
 [G,D]>[G,D] [G,D]>[G,B,] [A,D]>A, [A,,G,]>[A,,A,] | [D,F,]6 z2 |] %17

